!!!!SEGMENT: pl-wn--sd-xvi-qu-273--140_gomolka-mikolaj--bron-mie-moj-panie-od-ludzi-zlosliwych.krn
!!!cenid: 15xx:345
!!!COM: Gomółka, Mikołaj
!!!COM-rismid: pe30013343
!!!CDT: ~1535->1591/04/30
!!!CNT: Polish
!!!GTL: Melodiae na psalterz polski
!!!OTL: CXL. Broń mię, mój Panie, od ludzi złośliwych,
!!!PDT: 1580
!!!AGN: Sacred
!!!SMS-siglum: PL-Wn
!!!SMS-shelfmark: SD XVI.Qu.273
!!!SMS-shelfwork: 140 G
!!!NIFC-rismid:
!!!ONB-nifc: Melodiae na psalterz polski
**kern	**text	**text	**kern	**text	**text	**kern	**text	**text	**kern	**text	**text
*part4	*part4	*part4	*part3	*part3	*part3	*part2	*part2	*part2	*part1	*part1	*part1
*staff4	*staff4	*staff4	*staff3	*staff3	*staff3	*staff2	*staff2	*staff2	*staff1	*staff1	*staff1
*clefF4	*	*	*clefC4	*	*	*clefC3	*	*	*clefC1	*	*
*k[]	*	*	*k[]	*	*	*k[]	*	*	*k[]	*	*
*a:	*	*	*a:	*	*	*a:	*	*	*a:	*	*
*M4/2	*	*	*M4/2	*	*	*M4/2	*	*	*M4/2	*	*
*met(C|)	*	*	*met(C|)	*	*	*met(C|)	*	*	*met(C|)	*	*
*>[A,A,B,B,C,C]	*	*	*	*	*	*	*	*	*	*	*
=1	=1	=1	=1	=1	=1	=1	=1	=1	=1	=1	=1
*>A	*	*	*	*	*	*	*	*	*	*	*
1D	Bróń	Bróń	1A	Bróń	Bróń	1d	Bróń	Bróń	1a	Bróń	Bróń
2AA	mię	od	2A/	mię	od	2.c/	mię	od	2a	mię	od
2C	pá-	pot-	2G	pá-	pot-	.	.	.	2e	pá-	pot-
.	.	.	.	.	.	4B	pá-	pot-	.	.	.
=2-	=2	=2	=2	=2	=2	=2	=2	=2	=2	=2	=2
1D	-nie	-war-	2.F	-nie	-war	4A	-nie	-war	1f	-nie	-war-
.	.	.	.	.	.	4G	.	.	.	.	.
.	.	.	.	.	.	4A	.	.	.	.	.
.	.	.	4G	.	.	4B	.	.	.	.	.
2AA	od	-(ców)	4A	od	(ców)	4c	od	(ców)	2e	od	-(ców)
.	.	.	4B	.	.	4d	.	.	.	.	.
2A	lu-	ʃproʃ-	2c	lu-	ʃproʃ-	2e	lu-	ʃproʃ-	2cc	lu-	ʃproʃ-
=3-	=3	=3	=3	=3	=3	=3	=3	=3	=3	=3	=3
1A	-dʒ́i	-(nych)	2.c	-dʒ́i	-(nych)	1e	-dʒ́i	-(nych)	1cc	-dʒ́i	-(nych)
.	.	.	4B	.	.	.	.	.	.	.	.
2A	ӡłoś-	niew-	2A/	ӡłoś-	niew-	2f#X	ӡłoś-	niew-	2cc	ӡłoś-	niew-
2E	-li	-ʃtyd	2G#X	-li-	-ʃtyd	1e	-li	-ʃtyd	2b	-li	-ʃtyd-
=4-	=4	=4	=4	=4	=4	=4	=4	=4	=4	=4	=4
1F	.	li-	1A	.	li-	.	.	.	1a	.	-li-
.	.	.	.	.	.	2d	.	li-	.	.	.
1E	wych/	-(wych)	1B	wych/	-(wych)	1e	wych/	-(wych)	1g	wych/	-(wych)
=5:!:	=5	=5	=5	=5	=5	=5	=5	=5	=5	=5	=5
=-	=-	=-	=-	=-	=-	=-	=-	=-	=-	=-	=-
*>B	*	*	*	*	*	*	*	*	*	*	*
1E	Któ-	.	1e	Któ-	.	1g	Któ-	.	1b	Któ-	.
2BB	-rӡy	.	1c	-rӡyw_ʃwym	.	2f#X	-rӡy	.	2b	-rӡy	.
2D/	w_ʃwym	.	.	.	.	2f#	w_ʃwym	.	2a	w_ʃwym	.
=6-	=6	=6	=6	=6	=6	=6	=6	=6	=6	=6	=6
4AA	ʃer	.	2c	ʃer	.	2.e	ʃer	.	1cc	ʃer-	.
4BB	.	.	.	.	.	.	.	.	.	.	.
!!LO:PB:g=original
4C	.	.	2A/	.	.	.	.	.	.	.	.
4D/	.	.	.	.	.	4f	.	.	.	.	.
2E	.	.	4G	.	.	2e	.	.	2b	.	.
.	.	.	4A/	.	.	.	.	.	.	.	.
2.D/	cu	.	4B	cu	.	4d	cu	.	1dd	cu	.
.	.	.	4c	.	.	4e	.	.	.	.	.
=7-	=7	=7	=7	=7	=7	=7	=7	=7	=7	=7	=7
.	.	.	2d	.	.	2f	.	.	.	.	.
4E	.	.	.	.	.	.	.	.	.	.	.
1F	ӡdrá-	.	2.c	ӡdrá-	.	2f	ӡdrá-	.	2.a	ӡdrá-	.
.	.	.	.	.	.	2f	.	.	.	.	.
.	.	.	4d	.	.	.	.	.	4b	.	.
2C	-dę	.	2e	dę	.	2g	dę	.	2cc	dę	.
=8-	=8	=8	=8	=8	=8	=8	=8	=8	=8	=8	=8
2G	tyl-	.	2d	tyl-	.	2.g	tyl-	.	2cc	tyl-	.
2GG	-ťo	.	2d	-ťo	.	.	.	.	2b	-ťo	.
.	.	.	.	.	.	4f	-ťo	.	.	.	.
2C	ťnu-	.	2c	ťnu-	.	2e	ťnu-	.	2cc	ťnu-	.
2G	-ią/	.	2d	-ią/	.	2.g	-ią/	.	2b	-ią/	.
=9-	=9	=9	=9	=9	=9	=9	=9	=9	=9	=9	=9
2E	A	.	4e	.	.	.	.	.	2b	A	.
.	.	.	4d	A	.	4f	A	.	.	.	.
4A	ná	.	1c	ná_mię	.	2e	ná	.	4cc	ná	.
4G	.	.	.	.	.	.	.	.	4b	.	.
4F	mię	.	.	.	.	2f	mię	.	4a	mię	.
4E	.	.	.	.	.	.	.	.	4g#X	.	.
2F	woy	.	4B	woy	.	4e	woy	.	2a	woy-	.
.	.	.	4A	.	.	4d	.	.	.	.	.
=10-	=10	=10	=10	=10	=10	=10	=10	=10	=10	=10	=10
2E	ʃťa	.	2B	ʃťa	.	2e	ʃťa	.	2g#X/	-ʃťa	.
2AA	uʃ-	.	2.A/	uʃ-	.	2c#X/	uʃ-	.	2e	uʃ-	.
2/D	-táw-	.	.	.	.	2d	-táw-	.	2f	-táw-	.
.	.	.	4B	-táw-	.	.	.	.	.	.	.
2C	-nie	.	2c	-nie	.	2e	-nie	.	2e	-nie	.
=11-	=11	=11	=11	=11	=11	=11	=11	=11	=11	=11	=11
2F	ʃᴣy-	.	2A/	ʃᴣy-	.	2f	ʃᴣy-	.	2c	ʃᴣy-	.
2F	-ťu-	.	2A/	-ťu-	.	2f	-ťu-	.	2d	-ťu-	.
!!LO:PB:g=original
2E	-ią.	.	2.B	-ią.	.	2.g	-ią.	.	2e	-ią.	.
*>C	*	*	*	*	*	*	*	*	*	*	*
!!LO:reperycja zaznaczona w tekście
=:!:	=	=	=-	=-	=-	=-	=	=	=	=	=
=-	=-	=-	=-	=-	=-	=-	=-	=-	=-	=-	=-
2E	Oʃ	Iá	.	.	.	.	.	.	2.b	Oʃ	Iá
.	.	.	4A/	Oʃ	Iá	4f	Oʃ	Iá	.	.	.
=12-	=12	=12	=12	=12	=12	=12	=12	=12	=12	=12	=12
2.E	.	.	2G#X	.	.	2e	.	.	.	.	.
.	.	.	.	.	.	.	.	.	4a	.	.
.	.	.	2B	troś-	dem	1e	troś-	dem	2g#X/	troś-	dem
4D/	troś-	dem	.	.	.	.	.	.	.	.	.
2C#X	-ćią	byʃt-	1A	-ćią	byʃt-	.	.	.	2.a	-ćią	byʃt
2D/	.	.	.	.	.	2d	-ćią	byʃt-	.	.	.
.	.	.	.	.	.	.	.	.	4b	.	.
=13-	=13	=13	=13	=13	=13	=13	=13	=13	=13	=13	=13
2AA	ʒę-	ré-	2A/	ʒę-	-ré-	2.e	ʒę-	-ré-	2cc	ʒę-	ré-
2.E	-bów	-mu	2.G#X	-bów	-mu	.	.	.	4b	-bów	-mu
.	.	.	.	.	.	4f	-bów	-mu	4a	.	.
.	.	.	.	.	.	1g	po_dob-	rów_ni	4g/	po	rów
4F	po-	rów-	4A/	po-	rów-	.	.	.	4f	.	.
2G	-dob-	-ni	2B	-dob-	-ni	.	.	.	2e	dob-	ni
=14-	=14	=14	=14	=14	=14	=14	=14	=14	=14	=14	=14
2A	-ni	pá-	2.A/	-ni	pá-	2.c/	-ni	pá-	4f	-ni	pá
.	.	.	.	.	.	.	.	.	4g/	.	.
2F	wę-	-dál-	.	.	.	.	.	.	1a	wę-	dál-
.	.	.	4B	wę	-dál	4d	wę	-dál	.	.	.
1E	-ʒ̇o-	-co-	2c	.	.	2.e	.	.	.	.	.
.	.	.	2B	ʒ̇o-	co-	.	.	.	2g/	-ʒ̇o-	-co-
.	.	.	.	.	.	4d	ʒ̇o-	co-	.	.	.
=15-	=15	=15	=15	=15	=15	=15	=15	=15	=15	=15	=15
!!LO:N:vis=00
0AA/	-wi/	-wi.	0A	-wi/	-wi.	0c#X	-wi/	-wi.	0a	-wi/	-wi.
=	==	==	==	==	==	==	==	==	==	==	==
*-	*-	*-	*-	*-	*-	*-	*-	*-	*-	*-	*-
!!!RDF**kern: l = terminal long
!!!system-decoration: s1,s2,s3,s4
!!!ENC:Anna Matuszewska
!!!END:2020-02-22
!!!URL-scan: https://polona.pl/item/melodiae-na-psalterz-polski,Nzk3MTM4ODQ/326 Scan on Polona
!!!IIIF: https://polona.pl/iiif/item/Nzk3MTM4ODQ/manifest.json
